X:1
T:Gleniffer, 10.11.10.10
T:Gleniffer, 10.11.10.10
T:James Merrylees, 19th Century
T:Public Domain Courtesy of the Cyber Hymnal™
C:James Merrylees, 19th Century
Z:Public Domain
Z:Courtesy of the Cyber Hymnal™
%%score ( 1 2 ) ( 3 4 )
L:1/8
Q:1/4=97
M:4/4
K:D
V:1 treble 
V:2 treble 
V:3 bass 
V:4 bass 
V:1
 D[CE][DF][CG] [DA]2 [DF]D | [DE]2 [CA]2 [DF]4 | [DG][FA][GB][Gc] [Fd]2 [FA]2 | %3
 [FB][Fd][Ec][DB] [CA]4 | [CE][CE][DF][DF] [DG]2 [DF]2 | E2 [DF]D A4 | %6
 [GB][Gd][Ac][Ae] [Ad]2 [FA][FA] | [GB]2 [Gc]2 [Fd]4 |] %8
V:2
 D x5 D x | x8 | x8 | x8 | x8 | E2 D (C2 E2) x | x8 | x8 |] %8
V:3
 [D,F,][A,,A,][D,A,][E,A,] [F,A,]2 [D,A,][D,F,] | [G,,B,]2 [A,,A,]2 [D,A,]4 | %2
 B,[A,D][G,D][E,G,] [D,A,]2 [D,D]2 | [B,,D][B,,B,][E,^G,][E,G,] [A,,A,]4 | %4
 [A,,A,][A,,A,][D,A,][D,A,] [G,,B,]2 [D,A,]2 | [C,A,]2 [D,A,][B,,^G,] ([A,,A,]2 [A,C]2) | %6
 [G,D][G,B,][G,E][G,C] [F,D]2 [D,D][D,D] | [G,D]2 A,2 [D,A,]4 |] %8
V:4
 x8 | x8 | B, x7 | x8 | x8 | x8 | x8 | x2 A,2 x4 |] %8

